assets/Coffin/Flat/coffin_flat.svg

<svg width="32" height="32" viewBox="0 0 32 32" fill="none" xmlns="http://www.w3.org/2000/svg">
<path d="M23.8846 29.6154L27.4142 26.0858C27.7892 25.7108 28 25.2021 28 24.6716V21.6747L23 24L9.99995 12.0001L3.31492 7.9585L3.02802 11.6399C3.00946 11.8781 3.03371 12.1176 3.09963 12.3472L4.27947 16.4566C4.5345 17.3449 5.08925 18.1175 5.84944 18.6431L21.9709 29.7886C22.5669 30.2007 23.3722 30.1278 23.8846 29.6154Z" fill="#6D4534"/>
<path d="M8.30075 18.1978C8.07733 18.0355 7.76465 18.085 7.60235 18.3085C7.44005 18.5319 7.48959 18.8445 7.713 19.0069L10.2541 20.8529C10.4775 21.0152 10.7902 20.9657 10.9525 20.7423C11.1148 20.5189 11.0653 20.2062 10.8419 20.0439L8.30075 18.1978Z" fill="#D3883E"/>
<path d="M14.2939 22.3244C14.0705 22.1621 13.7578 22.2116 13.5955 22.435C13.4332 22.6585 13.4827 22.9711 13.7062 23.1334L16.2473 24.9795C16.4707 25.1418 16.7834 25.0923 16.9457 24.8689C17.108 24.6455 17.0585 24.3328 16.835 24.1705L14.2939 22.3244Z" fill="#D3883E"/>
<path d="M10.4728 2.03399L14.9604 3.44658C15.5921 3.64544 16.1403 4.04773 16.5194 4.59074L27.7142 20.6245C28.1663 21.272 28.0783 22.1525 27.5071 22.6978L23.8804 26.1597C23.3673 26.6494 22.5813 26.7129 21.9964 26.3117L6.61079 15.7616C5.89017 15.2675 5.35117 14.551 5.07617 13.7216L3.47348 8.88808C3.10542 7.77806 3.41594 6.55533 4.26904 5.75544L7.5201 2.70711C8.31055 1.96595 9.43926 1.70864 10.4728 2.03399Z" fill="#8C5543"/>
<path d="M12.1358 8.79818C12.3293 8.74615 12.5283 8.86082 12.5803 9.05428L13.086 10.9348C13.2332 10.6969 13.5496 10.44 14.1603 10.2343C14.1579 10.628 13.9645 11.3826 13.2396 11.5061L13.3381 11.8723L14.9484 12.2766C15.1427 12.3254 15.2606 12.5225 15.2119 12.7168C15.1631 12.9111 14.966 13.0291 14.7717 12.9803L13.5538 12.6745L13.8603 13.8143C13.9124 14.0078 13.7977 14.2068 13.6042 14.2588C13.4108 14.3108 13.2117 14.1962 13.1597 14.0027L12.7481 12.4722L12.4802 12.4049C12.4761 12.7079 12.2315 13.1434 11.2956 13.4585C11.2976 13.1189 11.4418 12.5109 11.9466 12.2709L10.2717 11.8503C10.0774 11.8015 9.95941 11.6044 10.0082 11.4101C10.057 11.2158 10.2541 11.0978 10.4484 11.1466L12.5324 11.67L11.8797 9.24268C11.8277 9.04922 11.9424 8.8502 12.1358 8.79818Z" fill="#86D72F"/>
<path d="M13.43 9.29847C13.4 9.22847 13.37 9.17847 13.33 9.12847C13.42 8.94847 13.43 8.73847 13.35 8.53847C13.19 8.15847 12.76 7.97847 12.37 8.12847H12.36C12.17 7.82847 11.78 7.68847 11.43 7.82847C11.09 7.96847 10.9 8.32847 10.98 8.67847C10.65 8.84847 10.5 9.23847 10.64 9.58847C10.72 9.76847 10.85 9.90847 11.02 9.97847C11.03 10.0585 11.05 10.1385 11.08 10.2085C11.1013 10.2623 11.1283 10.3122 11.1603 10.3576C11.1536 10.3545 11.1469 10.3514 11.1401 10.3485C11.0801 10.3285 11.0201 10.3085 10.9601 10.2985C10.9001 10.1085 10.7601 9.94848 10.5601 9.85848C10.1901 9.69848 9.76005 9.86848 9.60005 10.2485V10.2585C9.26005 10.1685 8.90005 10.3485 8.75005 10.6885C8.61005 11.0185 8.74005 11.4085 9.04005 11.5985C8.93005 11.9585 9.11005 12.3385 9.44005 12.4885C9.62005 12.5585 9.81005 12.5585 9.98005 12.4985C10.0401 12.5485 10.1101 12.5985 10.1801 12.6285C10.5501 12.7885 10.9801 12.6185 11.1401 12.2385C11.2201 12.0585 11.2201 11.8685 11.1601 11.6985C11.3201 11.6285 11.4601 11.4985 11.5201 11.3185C11.6251 11.0689 11.5879 10.7977 11.445 10.5956C11.6299 10.6824 11.852 10.6938 12.06 10.6085C12.24 10.5385 12.38 10.4085 12.46 10.2485C12.63 10.3185 12.82 10.3185 13.01 10.2485C13.4 10.0985 13.58 9.67847 13.43 9.29847Z" fill="#E39D89"/>
<path d="M12.54 9.24855C12.54 9.51365 12.3251 9.72855 12.06 9.72855C11.7949 9.72855 11.58 9.51365 11.58 9.24855C11.58 8.98346 11.7949 8.76855 12.06 8.76855C12.3251 8.76855 12.54 8.98346 12.54 9.24855Z" fill="#FFE5D9"/>
<path d="M10.66 11.2486C10.66 11.5137 10.445 11.7286 10.18 11.7286C9.91485 11.7286 9.69995 11.5137 9.69995 11.2486C9.69995 10.9835 9.91485 10.7686 10.18 10.7686C10.445 10.7686 10.66 10.9835 10.66 11.2486Z" fill="#FFE5D9"/>
</svg>

<svg xmlns="http://www.w3.org/2000/svg" width="32" height="32" fill="none"><path fill="#6D4534" d="m23.885 29.615 3.53-3.53A2 2 0 0 0 28 24.673v-2.997L23 24 10 12 3.315 7.958l-.287 3.682a2 2 0 0 0 .072.707l1.18 4.11a4 4 0 0 0 1.57 2.186L21.97 29.79a1.5 1.5 0 0 0 1.915-.174Z"/><path fill="#D3883E" d="M8.3 18.198a.5.5 0 1 0-.587.809l2.541 1.846a.5.5 0 0 0 .588-.81L8.3 18.199ZM14.294 22.324a.5.5 0 1 0-.588.81l2.541 1.846a.5.5 0 1 0 .588-.81l-2.541-1.846Z"/><path fill="#8C5543" d="m10.473 2.034 4.487 1.413a3 3 0 0 1 1.56 1.144l11.194 16.034a1.6 1.6 0 0 1-.207 2.073L23.88 26.16a1.5 1.5 0 0 1-1.884.152L6.611 15.762a4 4 0 0 1-1.535-2.04L3.473 8.888a3 3 0 0 1 .796-3.133L7.52 2.707a3 3 0 0 1 2.953-.673Z"/><path fill="#86D72F" d="M12.136 8.798a.363.363 0 0 1 .444.256l.506 1.88c.147-.237.464-.494 1.074-.7-.002.394-.196 1.149-.92 1.272l.098.366 1.61.405a.363.363 0 0 1-.176.703l-1.218-.306.306 1.14a.363.363 0 1 1-.7.189l-.412-1.53-.268-.068c-.004.303-.248.738-1.184 1.054.002-.34.146-.948.65-1.188l-1.674-.42a.363.363 0 0 1 .176-.704l2.084.523-.652-2.427a.363.363 0 0 1 .256-.445Z"/><path fill="#E39D89" d="M13.43 9.298a.693.693 0 0 0-.1-.17c.09-.18.1-.39.02-.59a.76.76 0 0 0-.98-.41h-.01c-.19-.3-.58-.44-.93-.3-.34.14-.53.5-.45.85a.72.72 0 0 0 .04 1.3.865.865 0 0 0 .14.38.732.732 0 0 0-.02-.01c-.06-.02-.12-.04-.18-.05a.726.726 0 0 0-1.36-.05v.01c-.34-.09-.7.09-.85.43-.14.33-.01.72.29.91-.11.36.07.74.4.89.18.07.37.07.54.01a.726.726 0 0 0 1.16-.26c.08-.18.08-.37.02-.54.16-.07.3-.2.36-.38a.747.747 0 0 0-.075-.722.763.763 0 0 0 .615.012c.18-.07.32-.2.4-.36.17.07.36.07.55 0 .39-.15.57-.57.42-.95Z"/><path fill="#FFE5D9" d="M12.54 9.249a.48.48 0 1 1-.96 0 .48.48 0 0 1 .96 0ZM10.66 11.249a.48.48 0 1 1-.96 0 .48.48 0 0 1 .96 0Z"/></svg>
